X: 34133
T: Reel Du Gin
R: reel
M: 4/4
K: Gmajor
|:gdgb agab|gdgb agef|gdgb agbg|gedB ABG2:|
|:gedB ABGA|BGAB cdef|gedB ABGA|BGEB A2 G2:|

